public/images/projectapp/05.tasks.svg

<svg viewBox="0 0 48.19 48.19" xmlns="http://www.w3.org/2000/svg"><rect fill="#78bb5d" height="45.04" rx="22.52" width="45.04" x="1.63" y="1.57"/><g fill="#1d1d1b"><path d="m20.14 19.19h-3.85v-3.85h3.85zm-3.3-.55h2.75v-2.75h-2.75z"/><path d="m20.14 25.79h-3.85v-3.85h3.85zm-3.3-.55h2.75v-2.75h-2.75z"/><path d="m20.14 32.4h-3.85v-3.86h3.85zm-3.3-.55h2.75v-2.76h-2.75z"/><path d="m33.07 36.8h-18.71a1.37 1.37 0 0 1 -1.36-1.38v-23.11a1.37 1.37 0 0 1 1.37-1.37h18.7a1.37 1.37 0 0 1 1.37 1.37v23.11a1.37 1.37 0 0 1 -1.37 1.38zm-19.53-24.49c0 24.17-.42 23.94.82 23.94 19.29 0 19.53.41 19.53-.83 0-24.16.42-23.93-.82-23.93-19.29 0-19.53-.42-19.53.82z"/><path d="m22.62 16.99h8.8v.55h-8.8z"/><path d="m22.62 23.59h8.8v.55h-8.8z"/><path d="m22.62 30.19h8.8v.55h-8.8z"/></g></svg>

<svg id="Layer_1" data-name="Layer 1" xmlns="http://www.w3.org/2000/svg" viewBox="0 0 48.19 48.19">
  <defs>
    <style>
      .cls-1 {
        fill: #78bb5d;
      }

      .cls-2 {
        fill: #1d1d1b;
      }
    </style>
  </defs>
  <title>tasks</title>
  <g>
    <rect class="cls-1" x="1.63" y="1.57" width="45.04" height="45.04" rx="22.52"/>
    <g>
      <path class="cls-2" d="M20.14,19.19H16.29V15.34h3.85Zm-3.3-.55h2.75V15.89H16.84Z"/>
      <path class="cls-2" d="M20.14,25.79H16.29V21.94h3.85Zm-3.3-.55h2.75V22.49H16.84Z"/>
      <path class="cls-2" d="M20.14,32.4H16.29V28.54h3.85Zm-3.3-.55h2.75V29.09H16.84Z"/>
      <path class="cls-2" d="M33.07,36.8H14.36A1.37,1.37,0,0,1,13,35.42V12.31a1.37,1.37,0,0,1,1.37-1.37H33.07a1.37,1.37,0,0,1,1.37,1.37V35.42A1.37,1.37,0,0,1,33.07,36.8ZM13.54,12.31c0,24.17-.42,23.94.82,23.94,19.29,0,19.53.41,19.53-.83,0-24.16.42-23.93-.82-23.93C13.78,11.49,13.54,11.07,13.54,12.31Z"/>
      <rect class="cls-2" x="22.62" y="16.99" width="8.8" height="0.55"/>
      <rect class="cls-2" x="22.62" y="23.59" width="8.8" height="0.55"/>
      <rect class="cls-2" x="22.62" y="30.19" width="8.8" height="0.55"/>
    </g>
  </g>
</svg>
